images_sukapura_svg/cmd/32/insertbookmark.svg

<svg viewBox="0 0 32 32" xmlns="http://www.w3.org/2000/svg" xmlns:xlink="http://www.w3.org/1999/xlink"><linearGradient id="a" gradientUnits="userSpaceOnUse" x1="-.542374" x2="-.880358" y1="35.13344" y2="25.260053"><stop offset="0" stop-color="#0040dd"/><stop offset="1" stop-color="#0a84ff"/></linearGradient><radialGradient id="b" cx="22" cy="9.076923" gradientTransform="matrix(1.3 .00000001 -.00000002 1.5 -6.6 -6.615385)" gradientUnits="userSpaceOnUse" r="10"><stop offset="0" stop-color="#d7d7d7"/><stop offset=".29999998" stop-color="#f7f7f7"/><stop offset="1" stop-color="#fff"/></radialGradient><linearGradient id="c" gradientUnits="userSpaceOnUse" x1="20" x2="23" y1="9" y2="6"><stop offset="0" stop-color="#fff"/><stop offset=".77967989" stop-color="#f1f1f1"/><stop offset="1" stop-color="#d5d5d5"/></linearGradient><path d="m6 3v26h19.99762l.00238-19-7-7z" fill="url(#b)"/><path d="m5.9976202 2c-.554 0-1 .446-1 1v26c0 .554.446 1 1 1h19.9999998c.554 0 .892483-.456533 1-1v-10.109375-10.5052752l-6.508082-6.3853498zm0 1h12.9999998v6c0 .6726441.491378 1 1 1h6v19h-19.9999998z" fill="#98989d"/><path d="m20 9h6l-6-6z" fill="url(#c)" fill-rule="evenodd"/><path d="m18 14c-1.090703 0-2 .909297-2 2v13 1h4v-1-3.296875c.343945.143471.698059.336723 1.0625.181641l4.935547-2.09375 1-.423828v-4.476563-1.535156l-.998047-.546875-.001953-.001953-4.802735-2.628907h-.001953c-.190956-.104724-.419765-.174534-.666015-.177734-.509186-.007-.88664.238649-1.148438.580078-.361628-.350597-.844818-.580078-1.378906-.580078z" fill="#fff" fill-opacity=".784314"/><path d="m20.513641 15.000039c-.282697-.0039-.513491.281395-.513641.634749v8.73025c.000364.434941.342414.740751.671834.600571l8.985781-3.810939c.436842-.188435.46197-.948776.03905-1.181612l-8.983823-4.919309c-.06283-.03454-.130575-.05281-.199206-.05371z" fill="url(#a)"/><rect fill="#98989d" height="16" ry="1" width="2" x="17" y="15"/></svg>

<?xml version="1.0" encoding="UTF-8" standalone="no"?>
<svg
   xmlns:dc="http://purl.org/dc/elements/1.1/"
   xmlns:cc="http://creativecommons.org/ns#"
   xmlns:rdf="http://www.w3.org/1999/02/22-rdf-syntax-ns#"
   xmlns:svg="http://www.w3.org/2000/svg"
   xmlns="http://www.w3.org/2000/svg"
   xmlns:xlink="http://www.w3.org/1999/xlink"
   xmlns:sodipodi="http://sodipodi.sourceforge.net/DTD/sodipodi-0.dtd"
   xmlns:inkscape="http://www.inkscape.org/namespaces/inkscape"
   viewBox="0 0 32 32"
   version="1.1"
   id="svg22"
   sodipodi:docname="insertbookmark.svg"
   inkscape:version="0.92.3 (unknown)">
  <metadata
     id="metadata28">
    <rdf:RDF>
      <cc:Work
         rdf:about="">
        <dc:format>image/svg+xml</dc:format>
        <dc:type
           rdf:resource="http://purl.org/dc/dcmitype/StillImage" />
        <dc:title></dc:title>
      </cc:Work>
    </rdf:RDF>
  </metadata>
  <defs
     id="defs26">
    <linearGradient
       inkscape:collect="always"
       xlink:href="#a-2"
       id="linearGradient857"
       x1="24.745762"
       y1="24.896152"
       x2="24.407778"
       y2="15.022765"
       gradientUnits="userSpaceOnUse" />
    <linearGradient
       gradientTransform="translate(-25.288136,10.237288)"
       id="a-2"
       gradientUnits="userSpaceOnUse"
       x1="14"
       x2="13.79661"
       y1="22"
       y2="2.1355929">
      <stop
         offset="0"
         stop-color="#0040dd"
         id="stop2206" />
      <stop
         offset="1"
         stop-color="#0a84ff"
         id="stop2208" />
    </linearGradient>
  </defs>
  <sodipodi:namedview
     pagecolor="#ffffff"
     bordercolor="#666666"
     borderopacity="1"
     objecttolerance="10"
     gridtolerance="10"
     guidetolerance="10"
     inkscape:pageopacity="0"
     inkscape:pageshadow="2"
     inkscape:window-width="1366"
     inkscape:window-height="699"
     id="namedview24"
     showgrid="false"
     inkscape:zoom="10.429825"
     inkscape:cx="17.528033"
     inkscape:cy="1.4685792"
     inkscape:window-x="0"
     inkscape:window-y="0"
     inkscape:window-maximized="1"
     inkscape:current-layer="svg22" />
  <radialGradient
     id="a"
     cx="22"
     cy="9.076923"
     gradientTransform="matrix(1.3 .00000001 -.00000002 1.5 -6.6 -6.615385)"
     gradientUnits="userSpaceOnUse"
     r="10">
    <stop
       offset="0"
       stop-color="#d7d7d7"
       id="stop2" />
    <stop
       offset=".29999998"
       stop-color="#f7f7f7"
       id="stop4" />
    <stop
       offset="1"
       stop-color="#fff"
       id="stop6" />
  </radialGradient>
  <linearGradient
     id="b"
     gradientUnits="userSpaceOnUse"
     x1="20"
     x2="23"
     y1="9"
     y2="6">
    <stop
       offset="0"
       stop-color="#fff"
       id="stop9" />
    <stop
       offset=".77967989"
       stop-color="#f1f1f1"
       id="stop11" />
    <stop
       offset="1"
       stop-color="#d5d5d5"
       id="stop13" />
  </linearGradient>
  <g
     id="g838">
    <path
       id="path16"
       fill="url(#a)"
       d="m6 3v26h19.99762l.00238-19-7-7z" />
    <path
       id="path18"
       fill="#98989d"
       d="m5.9976202 2c-.554 0-1 .446-1 1v26c0 .554.446 1 1 1h19.9999998c.554 0 .892483-.456533 1-1v-10.109375-10.5052752l-6.508082-6.3853498zm0 1h12.9999998v6c0 .6726441.491378 1 1 1h6v19h-19.9999998z" />
    <path
       id="path20"
       fill-rule="evenodd"
       fill="url(#b)"
       d="m20 9h6l-6-6z" />
    <path
       style="fill:#ffffff;fill-opacity:0.78431374"
       d="M 18 14 C 16.909297 14 16 14.909297 16 16 L 16 29 L 16 30 L 20 30 L 20 29 L 20 25.703125 C 20.343945 25.846596 20.698059 26.039848 21.0625 25.884766 L 25.998047 23.791016 L 26.998047 23.367188 L 26.998047 18.890625 L 26.998047 17.355469 L 26 16.808594 L 25.998047 16.806641 L 21.195312 14.177734 L 21.193359 14.177734 C 21.002403 14.07301 20.773594 14.0032 20.527344 14 C 20.018158 13.993 19.640704 14.238649 19.378906 14.580078 C 19.017278 14.229481 18.534088 14 18 14 z "
       id="path1557" />
  </g>
  <path
     inkscape:connector-curvature="0"
     d="M 20.513641,15.000039 C 20.230944,14.996139 20.00015,15.281434 20,15.634788 v 8.73025 c 3.64e-4,0.434941 0.342414,0.740751 0.671834,0.600571 l 8.985781,-3.810939 c 0.436842,-0.188435 0.46197,-0.948776 0.03905,-1.181612 l -8.983823,-4.919309 c -0.06283,-0.03454 -0.130575,-0.05281 -0.199206,-0.05371 z"
     id="path20-6"
     style="fill:url(#linearGradient857);fill-opacity:1" />
  <rect
     style="fill:#98989d"
     height="16"
     ry="1"
     width="2"
     x="17"
     y="15"
     id="rect22" />
</svg>
